public/images/partners/allianz.svg

<svg width="238" height="61" viewBox="0 0 238 61" fill="none" xmlns="http://www.w3.org/2000/svg">
<g clip-path="url(#clip0_511_1041)">
<path d="M22.3802 32.3738H14.3349L18.5942 17.7019L22.3802 32.3738ZM10.1151 48.162L12.7969 38.6731H23.7211L26.4028 48.162H36.4594L26.4028 11.8411C25.7324 9.80773 24.6281 8.6914 22.1436 8.6914H8.10381V12.0803H9.20806C10.7856 12.0803 11.6532 12.7581 11.6532 13.8744C11.6532 14.5522 11.4166 14.9907 10.7461 17.0241L0.729004 48.162H10.1151ZM48.054 48.162V11.8411C48.054 9.80773 46.9497 8.6914 45.1356 8.6914H36.4199V12.0803H36.6565C38.4312 12.0803 39.1017 12.7581 39.1017 14.1136V47.9626H48.054V48.162ZM63.474 48.162V11.8411C63.474 9.80773 62.3698 8.6914 60.5557 8.6914H51.6428V12.0803H52.0766C53.6541 12.0803 54.0879 12.7581 54.0879 14.1136V47.9626H63.474V48.162ZM79.0913 12.2796C79.0913 9.80774 77.3166 8.21297 73.7278 8.21297C70.8094 8.21297 68.7981 9.80774 68.7981 12.2796C68.7981 14.9907 70.8094 16.5855 73.7278 16.5855C77.3166 16.5456 79.0913 14.9907 79.0913 12.2796ZM78.618 48.162V21.7685C78.618 19.9744 77.711 18.6188 75.9363 18.6188H67.0234V22.0077H67.6938C69.2713 22.0077 69.7052 22.6855 69.7052 24.0411V48.2019H78.618V48.162ZM98.4945 33.9287V39.7894C96.917 41.5835 95.1423 42.5005 93.8015 42.5005C92.0268 42.5005 91.3563 41.5836 91.3563 39.3509C91.3563 37.1182 92.0268 35.962 93.3676 35.2842C94.7085 34.8456 96.0494 34.4071 98.4945 33.9287ZM86.4661 27.1907C89.3845 25.596 92.6972 24.7188 95.379 24.7188C97.8241 24.7188 98.7311 25.6358 98.7311 28.347V29.0247C95.1423 29.7025 94.0381 29.9417 92.0268 30.1411C90.9225 30.3803 89.5816 30.8188 88.438 31.2574C84.8492 32.8522 83.0745 35.5633 83.0745 40.0685C83.0745 45.4907 85.5196 48.2019 90.4493 48.2019C92.224 48.2019 93.8015 47.9626 95.1423 47.2849C96.2466 46.6071 97.1536 46.1685 98.9283 44.813V45.4907C98.9283 47.2849 99.8354 48.2019 101.61 48.2019H109.853V45.0522H109.182C107.605 45.0522 107.171 44.1352 107.171 42.3411V28.3071C107.171 20.6522 104.726 18.1404 97.3508 18.1404C94.9057 18.1404 92.6578 18.3796 90.6465 18.8182C88.2013 19.496 87.0576 19.9345 84.4153 21.2901L86.4661 27.1907ZM122.827 48.162V28.0679C124.405 26.4731 125.746 25.596 127.521 25.596C129.532 25.596 129.966 26.513 129.966 29.6626V48.162H139.115V28.0679C139.115 23.5626 138.445 21.9679 137.34 20.413C135.763 18.8182 133.988 18.3796 131.543 18.3796C127.954 18.3796 125.746 19.496 122.394 22.6855V21.33C122.394 19.5358 121.487 18.6188 119.712 18.6188H111.233V22.0077H111.903C113.481 22.0077 113.915 22.6855 113.915 24.0411V48.2019H122.827V48.162ZM165.262 42.062H152.76L164.592 24.679V18.579H146.056C144.045 18.579 143.138 19.496 143.138 21.9679V27.1509H146.49V26.4731C146.49 25.3568 147.16 24.679 148.501 24.679H154.969L142.901 42.062V48.162H165.459V42.062H165.262ZM212.351 47.4842V14.0737C212.351 11.3626 211.443 10.4456 208.998 10.4456H201.426V14.5123H201.663C203.438 14.5123 203.674 14.7515 203.674 16.9842V47.6836H212.39V47.4842H212.351ZM216.137 47.4842H224.379V21.2901C224.379 18.8182 223.472 17.9012 221.027 17.9012H216.097V47.4842H216.137ZM200.085 47.4842V17.9012H195.156C192.711 17.9012 191.567 18.8182 191.567 21.2901V47.4842C191.606 47.4842 200.085 47.4842 200.085 47.4842ZM232.424 30.5398C232.424 45.2117 222.17 55.8169 208.091 55.8169C193.815 55.8169 183.522 45.2117 183.522 30.5398C183.522 15.8679 193.775 4.82408 208.091 4.82408C221.934 4.82408 232.424 15.8679 232.424 30.5398ZM237.354 30.5398C237.354 13.1568 224.852 0.318848 208.091 0.318848C191.33 0.318848 178.631 13.1966 178.631 30.5398C178.631 47.8829 191.37 60.7607 208.091 60.7607C224.813 60.7607 237.354 47.9228 237.354 30.5398Z" fill="white"/>
</g>
<defs>
<clipPath id="clip0_511_1041">
<rect width="236.625" height="61" fill="white" transform="translate(0.729004)"/>
</clipPath>
</defs>
</svg>

<svg width="238" height="61" viewBox="0 0 238 61" fill="none" xmlns="http://www.w3.org/2000/svg"><g clip-path="url(#clip0_511_1041)"><path d="M22.38 32.374h-8.045l4.26-14.672 3.785 14.672zM10.115 48.162l2.682-9.489H23.72l2.683 9.49h10.056L26.402 11.84c-.67-2.032-1.775-3.149-4.26-3.149H8.104v3.39h1.105c1.578 0 2.445.678 2.445 1.794 0 .678-.236 1.117-.907 3.15L.73 48.162h9.385zm37.94 0v-36.32c0-2.034-1.105-3.15-2.92-3.15H36.42v3.388h.237c1.774 0 2.445.678 2.445 2.034v33.849h8.952v.2zm15.42 0v-36.32c0-2.034-1.105-3.15-2.92-3.15h-8.912v3.388h.434c1.577 0 2.01.678 2.01 2.034v33.849h9.387v.2zM79.09 12.28c.001-2.472-1.773-4.067-5.362-4.067-2.919 0-4.93 1.595-4.93 4.067 0 2.71 2.011 4.306 4.93 4.306 3.589-.04 5.363-1.595 5.363-4.306zm-.472 35.882V21.77c0-1.796-.907-3.151-2.682-3.151h-8.913v3.388h.67c1.578 0 2.012.677 2.012 2.033v24.162h8.913v-.04zM98.495 33.93v5.86c-1.578 1.793-3.353 2.71-4.694 2.71-1.773 0-2.444-.916-2.444-3.15 0-2.232.67-3.388 2.012-4.066 1.34-.438 2.681-.877 5.127-1.355zm-12.029-6.74c2.918-1.594 6.231-2.471 8.913-2.471 2.444-.001 3.351.916 3.351 3.627v.678c-3.588.677-4.692.917-6.703 1.116-1.104.24-2.445.679-3.59 1.117-3.588 1.595-5.362 4.306-5.362 8.812 0 5.42 2.445 8.132 7.374 8.132 1.774 0 3.352-.24 4.692-.917 1.105-.678 2.012-1.117 3.786-2.472v.678c0 1.795.907 2.712 2.682 2.712h8.243v-3.15h-.67c-1.578 0-2.012-.917-2.012-2.71V28.306c0-7.655-2.444-10.167-9.82-10.167-2.444 0-4.692.24-6.703.678-2.446.678-3.59 1.116-6.232 2.472l2.051 5.9zm36.36 20.972V28.068c1.58-1.595 2.92-2.472 4.695-2.472 2.012 0 2.446.917 2.446 4.067v18.5h9.15V28.067c0-4.505-.67-6.1-1.776-7.655-1.577-1.595-3.352-2.033-5.797-2.033-3.59 0-5.797 1.116-9.15 4.306V21.33c0-1.794-.906-2.711-2.68-2.711h-8.48v3.388h.67c1.578 0 2.012.677 2.012 2.033v24.162h8.912v-.04zm42.436-6.1H152.76l11.832-17.383v-6.1h-18.536c-2.01 0-2.918.916-2.918 3.388v5.183h3.352v-.677c0-1.116.67-1.794 2.01-1.794h6.47L142.9 42.06v6.1h22.56v-6.1h-.198zm47.09 5.422v-33.41c0-2.711-.91-3.628-3.354-3.628h-7.572v4.066h.237c1.775 0 2.01.24 2.01 2.472v30.7h8.717v-.2h-.04zm3.785 0h8.242V21.29c0-2.472-.908-3.389-3.353-3.389h-4.93v29.584h.04zm-16.052 0V17.901h-4.93c-2.444.001-3.588.918-3.588 3.39v26.194h8.518zm32.34-16.944c0 14.672-10.255 25.277-24.334 25.277-14.275 0-24.568-10.605-24.568-25.277 0-14.672 10.253-25.716 24.57-25.716 13.842 0 24.332 11.044 24.332 25.716zm4.93 0C237.354 13.157 224.85.319 208.09.319c-16.76-.001-29.46 12.877-29.46 30.22 0 17.343 12.74 30.22 29.46 30.22 16.723 0 29.264-12.837 29.264-30.22z" fill="white"/></g><defs><clipPath id="clip0_511_1041"><rect width="236.625" height="61" fill="white" transform="translate(0.729004)"/></clipPath></defs></svg>
